img/ui/icons/Chek.svg

<svg width="25" height="24" viewBox="0 0 25 24" fill="none" xmlns="http://www.w3.org/2000/svg">
<path d="M23.7372 1.16729L23.7314 14.9482C23.6617 16.0157 22.4183 17.4611 21.3609 17.4611H14.5573V20.3577C14.5573 21.7911 13.0234 22.8646 11.7568 22.9426C8.57291 23.1345 5.21469 22.7926 2.01334 22.9426C1.60663 22.9546 1.28127 22.5348 1.57758 22.1749C1.72283 21.995 2.21669 22.007 2.47233 21.929C3.18116 21.7071 3.76217 20.9455 3.82608 20.1838C3.91904 19.0503 3.74474 13.9227 3.82608 12.7772C3.94809 12.2914 4.63368 12.3874 4.68597 12.8971C4.62787 14.0486 4.77893 19.0863 4.69759 20.2318C4.6453 20.9395 4.34318 21.5152 3.91323 22.049H11.8498C12.6632 22.049 13.6974 21.1374 13.6974 20.2738V17.4671H10.8911C9.93828 17.4671 8.52062 16.0517 8.52062 15.0681V13.7428H6.58587C6.29536 13.7428 6.09201 13.3649 6.20821 13.0831C6.23145 13.0171 6.40575 12.8492 6.45804 12.8492H8.45671L8.52062 12.7832V11.5238L8.45671 11.4578H6.45804C6.40575 11.4578 6.23145 11.2839 6.20821 11.2239C6.09782 10.936 6.30117 10.5642 6.58587 10.5642H8.52062V8.47714C8.52062 7.93739 8.05581 7.22371 7.62006 6.93584C6.38832 6.13221 4.87189 6.93584 4.69178 8.38718L4.68016 12.9091C4.49424 13.4009 3.84932 13.3049 3.82027 12.7832C3.90742 11.3378 3.70988 9.76656 3.82027 8.33321C3.91323 7.13975 5.06363 5.7064 6.27793 5.7064H13.1687V1.23244C13.1687 1.01054 13.4011 0.764648 13.6277 0.764648C13.9589 0.764648 14.8594 1.45433 15.2371 1.56229C15.6728 1.46033 16.463 0.776643 16.8523 0.770646C17.1602 0.770646 18.1072 1.44234 18.4559 1.56229C18.88 1.46633 19.6992 0.776643 20.0711 0.770646C20.3848 0.770646 21.3144 1.44834 21.6804 1.55629L23.2259 0.788638C23.4874 0.746657 23.5978 0.884594 23.7372 1.07651V1.16729ZM22.8599 1.9761C22.5403 2.08405 22.0174 2.50986 21.7095 2.51585C21.4016 2.52185 20.4952 1.89214 20.0943 1.7482C19.8154 1.73021 18.8916 2.50386 18.4907 2.51585C18.0898 2.52785 17.2706 1.86215 16.8348 1.7542C16.6141 1.7542 15.76 2.38391 15.452 2.47987C14.9233 2.6418 14.5224 2.09604 14.0286 1.9761C14.0286 5.5025 14.0286 9.0229 14.0286 12.5493C14.0286 13.5149 14.1854 14.8462 13.8194 15.7398C13.4534 16.6334 13.5057 16.2796 13.3314 16.5615H21.2679C21.9128 16.5615 22.8541 15.5359 22.8541 14.8762V1.9761H22.8599ZM13.1629 6.6H8.64263C9.04353 7.12776 9.32822 7.6915 9.38051 8.37519C9.53738 10.4502 9.20621 12.7772 9.38051 14.8403C9.55481 16.9033 11.3443 17.1072 12.4947 16.1177C12.7329 15.9138 13.1687 15.284 13.1687 14.9722V6.6H13.1629Z" fill="currentColor" stroke="currentColor" stroke-width="0.5"/>
<path d="M6.49219 19.1292L11.8781 19.1172C12.4243 19.1832 12.4359 19.9508 11.8781 20.0168H6.56772C6.05644 19.9508 5.99834 19.2731 6.49219 19.1292Z" fill="currentColor"/>
<path d="M15.7998 9.16699C16.2182 9.09502 17.9612 9.10102 18.3853 9.16699C18.8095 9.23296 18.9896 9.88666 18.4841 10.0486H15.7069C15.2653 9.85067 15.306 9.25095 15.8057 9.16699H15.7998Z" fill="currentColor"/>
<path d="M15.7591 11.4581C16.1425 11.3861 18.0482 11.3861 18.4433 11.4521C18.8384 11.518 18.9372 12.2677 18.4433 12.3457C17.6532 12.4716 16.5725 12.2617 15.7533 12.3457C15.3117 12.2437 15.2885 11.548 15.7591 11.4581Z" fill="currentColor"/>
<path d="M15.7128 13.7433H18.4842C18.9722 13.8812 18.9025 14.5529 18.397 14.6249C17.9613 14.6909 16.2241 14.6969 15.7941 14.6249C15.3235 14.5469 15.2654 13.8992 15.7128 13.7373V13.7433Z" fill="currentColor"/>
<path d="M17.1942 5.97656H19.739C20.2038 6.07252 20.198 6.75021 19.7448 6.86416H17.1477C16.7178 6.69624 16.7701 6.09651 17.1942 5.97656Z" fill="currentColor"/>
<path d="M16.9563 4.83148C16.7471 4.59159 16.8575 4.1358 17.1829 4.08182C17.9324 3.96188 18.9666 4.16579 19.7451 4.08182C20.2157 4.20777 20.1983 4.89745 19.6986 4.97542C19.199 5.05338 17.7058 5.03539 17.2642 4.97542C16.8227 4.91545 17.0086 4.89146 16.9505 4.82549L16.9563 4.83148Z" fill="currentColor"/>
<path d="M20.0883 12.2381C19.8268 11.9982 19.9547 11.5304 20.28 11.4525C20.6054 11.3745 21.1457 11.4225 21.3026 11.4525C21.7209 11.5364 21.779 12.2141 21.3375 12.3221C21.1225 12.3761 20.2452 12.3821 20.0883 12.2381Z" fill="currentColor"/>
<path d="M20.2794 13.743C20.4363 13.713 21.2381 13.707 21.3833 13.755C21.7726 13.8749 21.7261 14.5586 21.2671 14.6306C21.0696 14.6606 20.355 14.6546 20.1923 14.5766C19.8321 14.4027 19.8785 13.827 20.2794 13.743Z" fill="currentColor"/>
<path d="M20.3668 9.16776C20.5644 9.13177 21.2209 9.13177 21.3894 9.20974C21.7613 9.39565 21.709 9.98339 21.3081 10.0494C20.9072 10.1153 20.2913 10.0733 20.1693 10.0194C19.8033 9.85744 19.8846 9.25172 20.3668 9.16776Z" fill="currentColor"/>
</svg>

<svg width="25" height="24" fill="none" xmlns="http://www.w3.org/2000/svg"><path d="m23.737 1.167-.006 13.781c-.07 1.068-1.313 2.513-2.37 2.513h-6.804v2.897c0 1.433-1.534 2.507-2.8 2.585-3.184.191-6.542-.15-9.744 0-.406.012-.732-.408-.435-.768.145-.18.639-.168.894-.246.71-.222 1.29-.983 1.354-1.745.093-1.134-.081-6.261 0-7.407.122-.486.808-.39.86.12-.058 1.152.093 6.19.012 7.335-.053.707-.355 1.283-.785 1.817h7.937c.813 0 1.847-.912 1.847-1.775v-2.807h-2.806c-.953 0-2.37-1.415-2.37-2.399v-1.325H6.586c-.29 0-.494-.378-.378-.66.023-.066.198-.234.25-.234h1.999l.064-.066v-1.26l-.064-.065H6.458c-.052 0-.227-.174-.25-.234-.11-.288.093-.66.378-.66H8.52V8.477c0-.54-.465-1.253-.9-1.541-1.233-.804-2.75 0-2.93 1.451l-.01 4.522c-.187.492-.832.396-.86-.126.086-1.445-.111-3.016 0-4.45.092-1.193 1.243-2.627 2.457-2.627h6.89V1.232c0-.221.233-.467.46-.467.33 0 1.231.69 1.61.797.435-.102 1.225-.785 1.614-.791.308 0 1.255.671 1.604.791.424-.096 1.243-.785 1.615-.791.314 0 1.243.677 1.61.785L23.225.79c.261-.042.372.096.511.288v.09Zm-.877.81c-.32.107-.843.533-1.15.539-.308.006-1.215-.624-1.616-.768-.279-.018-1.202.756-1.603.768-.401.012-1.22-.654-1.656-.762-.22 0-1.075.63-1.383.726-.529.162-.93-.384-1.423-.504V12.55c0 .966.156 2.297-.21 3.19-.366.894-.313.54-.488.822h7.937c.645 0 1.586-1.025 1.586-1.685v-12.9h.006ZM13.163 6.6h-4.52c.4.528.685 1.091.738 1.775.156 2.075-.175 4.402 0 6.465.174 2.063 1.963 2.267 3.114 1.278.238-.204.674-.834.674-1.146V6.6h-.006Z" fill="currentColor" stroke="currentColor" stroke-width=".5"/><path d="m6.492 19.13 5.386-.013c.546.066.558.834 0 .9h-5.31a.451.451 0 0 1-.076-.888ZM15.8 9.167c.418-.072 2.161-.066 2.585 0 .424.066.605.72.1.882h-2.778c-.442-.198-.401-.798.099-.882H15.8ZM15.76 11.458c.382-.072 2.288-.072 2.683-.006.395.066.494.816 0 .894-.79.126-1.87-.084-2.69 0-.441-.102-.464-.798.006-.888ZM15.713 13.743h2.771c.488.138.418.81-.087.882-.436.066-2.173.072-2.603 0-.47-.078-.529-.726-.081-.888v.006ZM17.194 5.977h2.545c.465.096.459.773.006.887h-2.597c-.43-.168-.378-.767.046-.887ZM16.956 4.831c-.209-.24-.098-.695.227-.75.75-.12 1.784.085 2.562 0 .47.127.453.816-.046.894-.5.078-1.993.06-2.435 0-.441-.06-.255-.084-.313-.15l.005.006ZM20.088 12.238c-.261-.24-.133-.708.192-.785.325-.079.866-.03 1.023 0 .418.083.476.761.034.87-.215.053-1.092.06-1.249-.085ZM20.28 13.743c.156-.03.958-.036 1.103.012.39.12.343.804-.116.876-.197.03-.912.024-1.075-.054-.36-.174-.314-.75.087-.834ZM20.367 9.168c.197-.036.854-.036 1.022.042.372.186.32.773-.08.84-.402.065-1.018.023-1.14-.03-.366-.163-.284-.768.198-.852Z" fill="currentColor"/></svg>
